X: 90
T:Heptatonic Modes on A
L:1/4
M:10/4
K:ALyd
"^Lydian"     A2 Bc de fg a2|a2 gf ed cB A2||
M:10/4
K:A
"^Major"      A2 Bc de fg a2|a2 gf ed cB A2||
M:10/4
K:AMix
"^Mixolydian" A2 Bc de fg a2|a2 gf ed cB A2||
M:10/4
K:ADor
"^Dorian"     A2 Bc de fg a2|a2 gf ed cB A2||
M:10/4
K:AMin
"^Minor"      A2 Bc de fg a2|a2 gf ed cB A2||
M:10/4
K:APhr
"^Phrygian"   A2 Bc de fg a2|a2 gf ed cB A2|]

=============================================================================
==  (c) Jack Campin          http://www.campin.me.uk/      September 2012  ==
==        11 Third Street, Newtongrange, Midlothian EH22 4PU, Scotland     ==
==                                                                         ==
==              these pages: http://tinyurl.com/scottishmodes              ==
=============================================================================

=============================================================================
=               Scales and Modes in Scottish Traditional Music              =
=                                  Jack Campin                              =
=============================================================================

Hexatonic Modes
===============

1. The Hexatonic Pitch Set
== =======================

Many Scottish tunes don't use all seven notes of the diatonic pitch set.
The same procedure occurs in non-Western musical systems: in classical
Indian music, modes derived by leaving notes out of a raga are called
"secondary ragas", and the Indonesian seven-note "pelog" scale is usually
reduced to scales ("pathets") that leave gaps.
 
There are many theoretically possible scales like this, but only a few are
used.  The six-note modes of Scottish music can all be seen as different
modes of the white-note pitch set with B (ti) left out, or alternatively
as its transposition down a fourth, the set with F (fa) left out, which
also fits the white notes.  The interval sequence now has a wider gap, a
minor third, written as m.  (None of the hexatonic or pentatonic scales
of Scottish music has a wider gap than a minor third; the same goes for
the pentatonic scales of China, but African and Japanese music use scales
with major third gaps, and ancient Greek music used both).

The omitted-B version looks like this:

   -ti:   1  2  3  4  5  6  7  8  9 10 11 12
          C     D     E  F     G     A
         do    re    mi fa    so    la
            T     T    S   T     T      m

and the omitted-F version is the same pattern transposed:

   -fa:   1  2  3  4  5  6  7  8  9 10 11 12
          C     D     E        G     A     B
         do    re    mi       so    la    ti
             T     T      m       T     T    S

There are two different ways to get this pitch set on the pipe chanter:
either omit the C sharp (so that the single semitone gap is between
F sharp and G) or omit the G's (so that the semitone falls between C sharp
and D).  Nobody seems to have named these before; I'll call the first
the "C-gap hexatonic pitch set" and the second the "G-gap hexatonic pitch
set".  Pipe tunes using the C-gap set work well on a G whistle.

